static/assets/images/exchanges/nuri.svg

<svg width="360" height="256" viewBox="0 0 360 256" fill="none" xmlns="http://www.w3.org/2000/svg">
<path d="M160.352 27.0543C161.497 28.3594 161.663 29.8094 162.272 31.0376C162.847 32.1944 162.975 33.5667 163.987 34.8453C164.43 34.0536 164.812 33.5003 165.077 32.8918C167.584 27.1312 170.062 21.365 172.558 15.6045C174.45 11.2218 176.331 6.82862 178.257 2.45713C178.634 1.59892 178.91 0.64768 179.58 0C180.349 0.116107 180.481 0.674958 180.664 1.14008C184.15 10.0327 187.625 18.9359 191.105 27.8285C191.847 29.7242 192.601 31.6148 193.368 33.5003C193.523 33.8766 193.778 34.2137 194.143 34.8222C195.576 32.2882 196.146 29.6988 197.385 27.1088C198.038 27.867 198.127 28.5427 198.271 29.1673C199.344 34.0039 200.401 38.8405 201.469 43.6764C203.51 52.923 205.558 62.164 207.6 71.4105C209.088 78.1454 210.56 84.8908 212.059 91.6194C212.375 93.0253 212.419 94.3976 212.131 95.8195C209.201 110.213 206.286 124.609 203.389 139.009C201.369 149.075 199.405 159.146 197.391 169.212C194.973 181.269 192.521 193.321 190.104 205.379C188.627 212.755 187.177 220.131 185.716 227.508C184.033 236.013 182.357 244.518 180.67 253.018C180.515 253.792 180.293 254.55 180.122 255.27C179.358 255.397 179.308 254.91 179.22 254.5C178.241 249.913 177.25 245.331 176.299 240.738C173.626 227.829 170.981 214.919 168.314 202.009C165.802 189.879 163.257 177.755 160.75 165.62C157.978 152.196 155.244 138.76 152.472 125.33C150.418 115.364 148.336 105.404 146.226 95.4488C145.976 94.2808 145.999 93.1966 146.247 92.051C147.449 86.5177 148.605 80.9726 149.8 75.4393C152.6 62.4689 155.41 49.4978 158.211 36.5275C158.714 34.1913 159.19 31.851 159.699 29.5219C159.859 28.7749 160.092 28.044 160.363 27.0319L160.352 27.0543ZM360 135.29C358.34 137.432 356.625 138.705 355.076 140.121C344.302 149.965 333.479 159.76 322.689 169.582C314.971 176.61 307.28 183.665 299.566 190.693C289.69 199.685 279.796 208.654 269.925 217.652C262.278 224.625 254.648 231.619 247.007 238.597C244.982 240.445 242.962 242.304 240.893 244.097C240.24 244.661 239.471 245.187 238.663 245.475C229.09 248.906 219.501 252.287 209.912 255.673C209.52 255.812 209.099 255.862 208.657 255.956C208.485 254.97 209.11 254.528 209.508 254.008C212.463 250.146 215.44 246.294 218.412 242.448L255.86 193.924C266.345 180.339 276.836 166.766 287.294 153.158C288.152 152.04 289.109 151.404 290.514 151.094C297.336 149.594 304.132 147.984 310.932 146.402C321.699 143.9 332.467 141.383 343.234 138.882C348.231 137.719 353.222 136.569 358.224 135.423C358.639 135.329 359.082 135.357 360 135.296V135.29ZM0.232526 137.985C1.42737 138.223 2.63412 138.417 3.81846 138.699C15.4433 141.433 27.0626 144.189 38.6938 146.928C48.6812 149.28 58.663 151.631 68.6616 153.916C70.1331 154.254 71.1682 154.935 72.1088 156.119C80.2367 166.389 88.415 176.615 96.5822 186.852C107.344 200.344 118.101 213.834 128.863 227.325C136.034 236.319 143.201 245.317 150.364 254.318C150.685 254.721 150.951 255.17 151.455 255.911C150.635 255.784 150.132 255.789 149.689 255.624C143.481 253.288 137.284 250.926 131.081 248.568C127.772 247.312 124.48 246.029 121.161 244.8C119.976 244.363 118.98 243.716 118.034 242.874C110.559 236.239 103.039 229.655 95.547 223.042C84.9398 213.673 74.3494 204.283 63.7428 194.92C55.5862 187.721 47.403 180.549 39.2415 173.35C32.4744 167.38 25.7291 161.387 18.9676 155.416C13.1356 150.265 7.28744 145.124 1.45539 139.967C0.940608 139.513 0.486763 138.998 0 138.517C0.0770416 138.34 0.149181 138.168 0.226923 137.991L0.232526 137.985ZM159.632 255.928C158.924 255.037 158.205 254.163 157.513 253.261C146.624 239.083 135.746 224.906 124.856 210.73C110.47 191.993 96.0891 173.245 81.6753 154.525C80.4693 152.959 79.5616 151.316 79.0195 149.401C76.6347 140.973 74.1778 132.568 71.7376 124.157C68.5894 113.283 65.4356 102.41 62.2818 91.5362C61.6676 89.4113 61.0478 87.2864 60.4503 85.1615C60.3558 84.8349 60.3453 84.4865 60.3005 84.1879C60.8986 83.7451 61.1913 84.1767 61.4568 84.4537C62.9827 86.0549 64.4972 87.6669 66.0001 89.2896C74.2002 98.0934 82.4002 106.897 90.6058 115.702C90.8383 115.951 91.1374 116.128 91.3692 116.316C92.0724 116.084 91.8728 115.591 91.8399 115.187C91.5464 112.016 91.2313 108.845 90.9322 105.675C90.8937 105.249 90.9322 104.812 90.9322 104.346C91.8455 104.219 92.2825 104.844 92.7581 105.298C95.6521 108.032 98.5187 110.799 101.39 113.555C102.474 114.595 103.498 115.707 104.644 116.681C105.595 117.489 105.977 118.435 106.099 119.652C106.507 123.613 106.97 127.569 107.488 131.517C107.637 132.64 107.908 133.791 108.351 134.831C113.019 145.722 117.721 156.599 122.455 167.462C126.627 177.03 130.876 186.565 135.076 196.116C140.31 208.013 145.583 219.898 150.746 231.83C153.59 238.403 156.252 245.054 158.957 251.689C159.483 252.978 160.003 254.301 159.638 255.928H159.632ZM267.264 103.838C267.28 108.37 266.191 112.254 266.334 116.493C266.821 116.227 267.159 116.133 267.369 115.912C272.509 110.422 277.633 104.922 282.762 99.4217C287.106 94.7627 291.444 90.0974 295.798 85.4441C296.319 84.8852 296.844 84.2928 297.884 83.7787C297.696 84.7803 297.624 85.4553 297.436 86.1022C295.533 92.7371 293.618 99.3664 291.698 105.99C289.236 114.484 286.768 122.978 284.3 131.478C282.453 137.852 280.566 144.211 278.784 150.602C278.386 152.035 277.567 153.142 276.709 154.26C271.331 161.287 265.93 168.293 260.541 175.309C250.736 188.081 240.932 200.858 231.127 213.629C220.726 227.173 210.323 240.716 199.919 254.257C199.454 254.86 198.935 255.424 198.442 256C197.806 255.535 198.066 255.103 198.204 254.727C199.393 251.49 200.456 248.198 201.823 245.038C208.557 229.444 215.363 213.884 222.163 198.318C228.504 183.809 234.884 169.322 241.225 154.813C244.024 148.41 246.719 141.964 249.541 135.567C250.343 133.747 250.692 131.871 250.896 129.928C251.268 126.409 251.71 122.895 252.042 119.376C252.142 118.308 252.651 117.566 253.37 116.88C255.937 114.446 258.51 112.011 261.072 109.571C262.417 108.286 263.734 106.975 265.084 105.697C265.643 105.165 266.256 104.701 267.269 103.848L267.264 103.838ZM169.753 255.048C169.365 254.284 168.939 253.532 168.601 252.746C163.373 240.556 158.161 228.36 152.932 216.169C147.111 202.601 141.268 189.038 135.447 175.469C131.856 167.103 128.287 158.719 124.707 150.347C122.239 144.576 119.777 138.804 117.281 133.044C116.645 131.572 116.203 130.072 116.031 128.467C115.256 121.346 114.432 114.224 113.618 107.102C112.866 100.506 112.108 93.9157 111.35 87.3256C110.326 78.4497 109.291 69.5738 108.268 60.6924C107.914 57.6155 107.56 54.5387 107.228 51.4626C107.194 51.1471 107.272 50.8205 107.299 50.4883C108.257 50.433 108.384 51.1688 108.683 51.6451C111.206 55.7012 113.707 59.7684 116.197 63.8461C122.61 74.3384 128.995 84.8405 135.436 95.3159C136.426 96.9261 137.135 98.5914 137.522 100.434C138.955 107.274 140.421 114.108 141.871 120.942C144.278 132.275 146.674 143.607 149.08 154.94C151.011 164.026 152.949 173.112 154.874 182.199C157.198 193.188 159.489 204.178 161.824 215.167C164.474 227.629 167.152 240.08 169.814 252.536C169.98 253.305 170.079 254.086 170.212 254.86C170.062 254.926 169.908 254.987 169.758 255.054L169.753 255.048ZM250.936 50.6603C250.719 52.7684 250.532 54.8765 250.288 56.979C249.829 61.0246 249.326 65.0638 248.866 69.1087C248.063 76.1422 247.273 83.1807 246.476 90.2191L243.919 112.652C243.294 118.109 242.696 123.565 242.016 129.01C241.871 130.148 241.573 131.261 241.13 132.319C238.641 138.278 236.09 144.211 233.55 150.148C229.406 159.827 225.256 169.505 221.106 179.183C217.515 187.56 213.925 195.938 210.338 204.316C205.537 215.544 200.732 226.769 195.925 237.994C193.664 243.283 191.391 248.568 189.108 253.847C188.856 254.444 188.437 254.955 187.902 255.319C187.929 254.86 187.902 254.39 187.99 253.947C190.076 244.163 192.195 234.392 194.276 224.608C197.308 210.326 200.29 196.032 203.323 181.756C205.784 170.157 208.302 158.565 210.77 146.966C212.723 137.791 214.627 128.606 216.58 119.431C218.002 112.763 219.479 106.112 220.896 99.444C221.14 98.2928 221.582 97.2744 222.191 96.2784C230.518 82.6995 238.829 69.1087 247.145 55.5186C247.975 54.1568 248.783 52.7845 249.63 51.4339C249.845 51.0912 250.144 50.8037 250.41 50.4883C250.587 50.5491 250.764 50.61 250.936 50.6708V50.6603Z" fill="#DECFB1"/>
</svg>

<svg xmlns="http://www.w3.org/2000/svg" fill="none" viewBox="0 0 360 256"><path fill="#DECFB1" d="M160.352 27.054c1.145 1.305 1.311 2.755 1.92 3.984.575 1.156.703 2.529 1.715 3.807.443-.791.825-1.345 1.09-1.953 2.507-5.76 4.985-11.527 7.481-17.287 1.892-4.383 3.773-8.776 5.699-13.148.377-.858.653-1.81 1.323-2.457.769.116.901.675 1.084 1.14 3.486 8.893 6.961 17.796 10.441 26.688a460 460 0 0 0 2.263 5.672c.155.377.41.714.775 1.322 1.433-2.534 2.003-5.123 3.242-7.713.653.758.742 1.434.886 2.058 1.073 4.837 2.13 9.673 3.198 14.51 2.041 9.246 4.089 18.487 6.131 27.734 1.488 6.734 2.96 13.48 4.459 20.208.316 1.406.36 2.779.072 4.2a19244 19244 0 0 0-8.742 43.19c-2.02 10.066-3.984 20.137-5.998 30.203-2.418 12.057-4.87 24.109-7.287 36.167-1.477 7.376-2.927 14.752-4.388 22.129-1.683 8.505-3.359 17.01-5.046 25.51-.155.774-.377 1.532-.548 2.252-.764.127-.814-.36-.902-.77-.979-4.587-1.97-9.169-2.921-13.762-2.673-12.909-5.318-25.819-7.985-38.729-2.512-12.13-5.057-24.254-7.564-36.389-2.772-13.424-5.506-26.86-8.278-40.29a5447 5447 0 0 0-6.246-29.881c-.25-1.168-.227-2.252.021-3.398 1.202-5.533 2.358-11.078 3.553-16.612 2.8-12.97 5.61-25.941 8.411-38.911.503-2.337.979-4.677 1.488-7.006.16-.747.393-1.478.664-2.49zM360 135.29c-1.66 2.142-3.375 3.415-4.924 4.831-10.774 9.844-21.597 19.639-32.387 29.461-7.718 7.028-15.409 14.083-23.123 21.111-9.876 8.992-19.77 17.961-29.641 26.959-7.647 6.973-15.277 13.967-22.918 20.945-2.025 1.848-4.045 3.707-6.114 5.5-.653.564-1.422 1.09-2.23 1.378-9.573 3.431-19.162 6.812-28.751 10.198-.392.139-.813.189-1.255.283-.172-.986.453-1.428.851-1.948 2.955-3.862 5.932-7.714 8.904-11.56l37.448-48.524c10.485-13.585 20.976-27.158 31.434-40.766.858-1.118 1.815-1.754 3.22-2.064 6.822-1.5 13.618-3.11 20.418-4.692 10.767-2.502 21.535-5.019 32.302-7.52 4.997-1.163 9.988-2.313 14.99-3.459.415-.094.858-.066 1.776-.127zM.233 137.985c1.194.238 2.401.432 3.585.714 11.625 2.734 23.245 5.49 34.876 8.229 9.987 2.352 19.969 4.703 29.968 6.988 1.471.338 2.506 1.019 3.447 2.203 8.128 10.27 16.306 20.496 24.473 30.733 10.762 13.492 21.519 26.982 32.281 40.473a37384 37384 0 0 1 21.501 26.993c.321.403.587.852 1.091 1.593-.82-.127-1.323-.122-1.766-.287-6.208-2.336-12.405-4.698-18.608-7.056-3.309-1.256-6.601-2.539-9.92-3.768-1.185-.437-2.181-1.084-3.127-1.926-7.475-6.635-14.995-13.219-22.487-19.832-10.607-9.369-21.198-18.759-31.804-28.122-8.157-7.199-16.34-14.371-24.501-21.57-6.768-5.97-13.513-11.963-20.274-17.934-5.832-5.151-11.68-10.292-17.513-15.449-.514-.454-.968-.969-1.455-1.45l.227-.526zm159.399 117.943c-.708-.891-1.427-1.765-2.119-2.667-10.889-14.178-21.767-28.355-32.657-42.531-14.386-18.737-28.767-37.485-43.18-56.205-1.207-1.566-2.114-3.209-2.657-5.124-2.384-8.428-4.841-16.833-7.281-25.244q-4.724-16.31-9.456-32.62c-.614-2.126-1.234-4.25-1.832-6.376-.094-.326-.105-.674-.15-.973.599-.443.891-.011 1.157.266A466 466 0 0 1 66 89.29q12.299 13.204 24.606 26.412c.232.249.531.426.763.614.703-.232.504-.725.47-1.129-.293-3.171-.608-6.342-.907-9.512-.038-.426 0-.863 0-1.329.913-.127 1.35.498 1.826.952 2.894 2.734 5.76 5.501 8.632 8.257 1.084 1.04 2.108 2.152 3.254 3.126.951.808 1.333 1.754 1.455 2.971a430 430 0 0 0 1.389 11.865c.149 1.123.42 2.274.863 3.314a5876 5876 0 0 0 14.104 32.631c4.172 9.568 8.421 19.103 12.621 28.654 5.234 11.897 10.507 23.782 15.67 35.714 2.844 6.573 5.506 13.224 8.211 19.859.526 1.289 1.046 2.612.681 4.239zm107.632-152.09c.016 4.532-1.073 8.416-.93 12.655.487-.266.825-.36 1.035-.581 5.14-5.49 10.264-10.99 15.393-16.49 4.344-4.66 8.682-9.325 13.036-13.978.521-.559 1.046-1.151 2.086-1.665-.188 1.001-.26 1.676-.448 2.323a7337 7337 0 0 1-5.738 19.888q-3.695 12.74-7.398 25.488c-1.847 6.374-3.734 12.733-5.516 19.124-.398 1.433-1.217 2.54-2.075 3.658-5.378 7.027-10.779 14.033-16.168 21.049-9.805 12.772-19.609 25.549-29.414 38.32a207971 207971 0 0 1-31.208 40.628c-.465.603-.984 1.167-1.477 1.743-.636-.465-.376-.897-.238-1.273 1.189-3.237 2.252-6.529 3.619-9.689 6.734-15.594 13.54-31.154 20.34-46.72 6.341-14.509 12.721-28.996 19.062-43.505 2.799-6.403 5.494-12.849 8.316-19.246.802-1.82 1.151-3.696 1.355-5.639.372-3.519.814-7.033 1.146-10.552.1-1.068.609-1.81 1.328-2.496 2.567-2.434 5.14-4.869 7.702-7.309 1.345-1.285 2.662-2.596 4.012-3.874.559-.532 1.172-.996 2.185-1.849zm-97.511 151.21c-.388-.764-.814-1.516-1.152-2.302-5.228-12.19-10.44-24.386-15.669-36.577-5.821-13.568-11.664-27.131-17.485-40.7-3.591-8.366-7.16-16.75-10.74-25.122-2.468-5.771-4.93-11.543-7.426-17.303-.636-1.472-1.078-2.972-1.25-4.577-.775-7.121-1.599-14.243-2.413-21.365q-1.13-9.893-2.268-19.776c-1.024-8.876-2.059-17.752-3.082-26.634-.354-3.077-.708-6.153-1.04-9.23-.034-.315.044-.642.071-.974.958-.055 1.085.68 1.384 1.157 2.523 4.056 5.024 8.123 7.514 12.201 6.413 10.492 12.798 20.995 19.239 31.47.99 1.61 1.699 3.275 2.086 5.118 1.433 6.84 2.899 13.674 4.349 20.508 2.407 11.333 4.803 22.665 7.209 33.998 1.931 9.086 3.869 18.172 5.794 27.259 2.324 10.989 4.615 21.979 6.95 32.968 2.65 12.462 5.328 24.913 7.99 37.369.166.769.265 1.55.398 2.324-.15.066-.304.127-.454.194zM250.936 50.66c-.217 2.108-.404 4.217-.648 6.319-.459 4.046-.962 8.085-1.422 12.13-.803 7.033-1.593 14.072-2.39 21.11l-2.557 22.433c-.625 5.457-1.223 10.913-1.903 16.358a12.7 12.7 0 0 1-.886 3.309c-2.489 5.959-5.04 11.892-7.58 17.829q-6.217 14.518-12.444 29.035-5.387 12.566-10.768 25.133a66799 66799 0 0 1-14.413 33.678 4108 4108 0 0 1-6.817 15.853 3.36 3.36 0 0 1-1.206 1.472c.027-.459 0-.929.088-1.372 2.086-9.784 4.205-19.555 6.286-29.339 3.032-14.282 6.014-28.576 9.047-42.852 2.461-11.599 4.979-23.191 7.447-34.79 1.953-9.175 3.857-18.36 5.81-27.535 1.422-6.668 2.899-13.319 4.316-19.987.244-1.151.686-2.17 1.295-3.166 8.327-13.579 16.638-27.17 24.954-40.76.83-1.361 1.638-2.733 2.485-4.084.215-.343.514-.63.78-.946q.267.091.526.183z"/></svg>
